/* XPM */
static char * plugin_icon_xpm[] = {
"24 24 27 1",
" 	c #000000",
".	c #040404",
"+	c #4E4E4E",
"@	c #9E9E9E",
"#	c #D3D3D3",
"$	c #656565",
"%	c #E3E3E3",
"&	c #FFFFFF",
"*	c #171717",
"=	c #BDBDBD",
"-	c #DCDCDC",
";	c #D8D8D8",
">	c #A9A9A9",
",	c #797979",
"'	c #343434",
")	c #828282",
"!	c #3A3A3A",
"~	c #D0D0D0",
"{	c #E8E8E8",
"]	c #9C9C9C",
"^	c #757575",
"/	c #575757",
"(	c #333333",
"_	c #141414",
":	c #181818",
"<	c #202020",
"[	c #2E2E2E",
"                        ",
"                        ",
"        .+@##@+.        ",
"       $%&&&&&&%$       ",
"     *=&&&&&&&&&&=*     ",
"    *-&;>&&&&&&&&&-*    ",
"    =&&,')&&&&&&&&&=    ",
"   $&&&;!!;&&&&&&&&&$   ",
"  .%&&&&,',&&&&&&&&&%.  ",
"  +&&&&&;!!;&&&&&&&&&+  ",
"  @&&&&&&,',&&&&&&&&&@  ",
"  #&&&&&&;!!;&&&&&&&&#  ",
"  #&&&&&&&,',&&&&&&&&#  ",
"  @&&&&&&&;!!~&&&&&&&@  ",
"  +&&{]^/(_:<_(/^]{&&+  ",
"  .@[              [@.  ",
"                        ",
"                        ",
"                        ",
"                        ",
"                        ",
"                        ",
"                        ",
"                        "};
